images/icon-affordable.svg

<svg width="50" height="50" viewBox="0 0 50 50" fill="none" xmlns="http://www.w3.org/2000/svg">
<path d="M32.2472 27.2777C30.8891 26.0064 29.2686 25.0487 27.5 24.4721V19.2499C29.0198 19.463 30.4812 19.9797 31.7972 20.7693C31.8538 20.802 31.918 20.8192 31.9833 20.8192C32.0487 20.8192 32.1129 20.802 32.1694 20.7693C32.2267 20.7379 32.2744 20.6917 32.3077 20.6355C32.3409 20.5793 32.3584 20.5152 32.3583 20.4499V16.2471C32.358 16.1815 32.3404 16.1172 32.3072 16.0606C32.2741 16.004 32.2265 15.9572 32.1694 15.9249C30.7085 15.2337 29.1161 14.8642 27.5 14.8416V12.3582C27.5004 12.3096 27.4911 12.2614 27.4726 12.2164C27.4542 12.1714 27.427 12.1305 27.3926 12.0962C27.3582 12.0618 27.3174 12.0346 27.2724 12.0161C27.2274 11.9977 27.1792 11.9884 27.1305 11.9888H24.8667C24.818 11.9884 24.7698 11.9977 24.7248 12.0161C24.6799 12.0346 24.639 12.0618 24.6046 12.0962C24.5702 12.1305 24.543 12.1714 24.5246 12.2164C24.5061 12.2614 24.4968 12.3096 24.4972 12.3582V14.9166C22.8508 15.1084 21.3109 15.8286 20.1083 16.9693C19.5082 17.5414 19.0332 18.2318 18.7133 18.9968C18.3934 19.7617 18.2357 20.5847 18.25 21.4138C18.1816 22.9729 18.7271 24.4967 19.7694 25.6582C21.1239 26.9189 22.7347 27.8721 24.4917 28.4527V33.4527C23.5725 33.3297 22.6704 33.1023 21.8028 32.7749C20.8873 32.4924 20.0248 32.0606 19.25 31.4971C19.1944 31.4576 19.1291 31.434 19.0612 31.4286C18.9932 31.4232 18.925 31.4363 18.8639 31.4666C18.8037 31.4983 18.7533 31.5459 18.718 31.6041C18.6828 31.6623 18.6641 31.729 18.6639 31.7971V36.111C18.6634 36.1785 18.6816 36.2448 18.7164 36.3026C18.7512 36.3605 18.8012 36.4076 18.8611 36.4388C20.6024 37.3489 22.5277 37.8514 24.4917 37.9082V40.8332C24.4917 40.8816 24.5012 40.9295 24.5198 40.9742C24.5384 41.0189 24.5657 41.0594 24.6 41.0935C24.6344 41.1276 24.6751 41.1545 24.7199 41.1728C24.7647 41.191 24.8127 41.2003 24.8611 41.1999H27.1139C27.1636 41.2025 27.2134 41.195 27.2602 41.1778C27.3069 41.1605 27.3497 41.1339 27.3858 41.0996C27.422 41.0653 27.4507 41.024 27.4703 40.9782C27.49 40.9324 27.5001 40.8831 27.5 40.8332V37.7777C29.2008 37.6204 30.8067 36.9235 32.0833 35.7888C32.6583 35.2116 33.1078 34.5219 33.4037 33.7628C33.6996 33.0037 33.8355 32.1917 33.8028 31.3777C33.8459 29.8592 33.2867 28.3854 32.2472 27.2777ZM28.9528 31.5499V31.5777C28.9788 32.0036 28.8422 32.4235 28.5704 32.7525C28.2986 33.0815 27.9121 33.2951 27.4889 33.3499V29.6804C28.45 30.211 28.9417 30.8332 28.9528 31.5499ZM23.0917 21.1527C23.0658 20.7334 23.1946 20.3192 23.4536 19.9885C23.7127 19.6578 24.084 19.4336 24.4972 19.3582V23.2082C24.099 23.0247 23.758 22.7366 23.5104 22.3746C23.2629 22.0127 23.1182 21.5904 23.0917 21.1527Z" fill="url(#paint0_linear_131_287)"/>
<path d="M5.63058 27.8417C7.97319 27.8417 9.87225 25.9427 9.87225 23.6001C9.87225 21.2575 7.97319 19.3584 5.63058 19.3584C3.28797 19.3584 1.38892 21.2575 1.38892 23.6001C1.38892 25.9427 3.28797 27.8417 5.63058 27.8417Z" fill="#50E6FF"/>
<path d="M11.3945 15.164C13.7371 15.164 15.6362 13.2649 15.6362 10.9223C15.6362 8.57972 13.7371 6.68066 11.3945 6.68066C9.05189 6.68066 7.15283 8.57972 7.15283 10.9223C7.15283 13.2649 9.05189 15.164 11.3945 15.164Z" fill="#50E6FF"/>
<path d="M32.3223 5.25282C31.4579 5.01295 30.5793 4.8274 29.6917 4.69727C29.793 5.24775 29.7833 5.81293 29.6631 6.3596C29.5429 6.90628 29.3146 7.4234 28.9917 7.8806C32.157 8.31959 35.1599 9.55154 37.7215 11.462C40.283 13.3724 42.3202 15.8994 43.6435 18.808C44.9669 21.7166 45.5336 24.9126 45.2909 28.0989C45.0482 31.2852 44.0041 34.3585 42.2555 37.0332C40.5069 39.7078 38.1106 41.8971 35.2892 43.3976C32.4679 44.8981 29.313 45.661 26.1178 45.6156C22.9226 45.5702 19.7907 44.7178 17.0131 43.1377C14.2355 41.5577 11.9024 39.3011 10.2306 36.5778L11.8973 35.9528C11.9579 35.9305 12.0116 35.8925 12.0528 35.8428C12.0941 35.793 12.1214 35.7333 12.1321 35.6695C12.1428 35.6058 12.1365 35.5404 12.1138 35.4799C12.0911 35.4194 12.0528 35.366 12.0028 35.325L6.03338 30.4028C5.98328 30.3614 5.92314 30.3339 5.85903 30.3232C5.79492 30.3124 5.72911 30.3188 5.66824 30.3416C5.60738 30.3645 5.55361 30.4029 5.51237 30.4532C5.47114 30.5034 5.44389 30.5637 5.43338 30.6278L4.18893 38.2584C4.17847 38.3223 4.185 38.3879 4.20787 38.4485C4.23074 38.5091 4.26914 38.5626 4.31923 38.6037C4.36932 38.6448 4.42933 38.672 4.49325 38.6826C4.55716 38.6931 4.62273 38.6867 4.68338 38.6639L7.13616 37.7417C8.95554 40.904 11.5255 43.5697 14.6192 45.5035C17.7128 47.4372 21.235 48.5796 24.8747 48.8296C28.5145 49.0797 32.1598 48.4298 35.4888 46.9373C38.8179 45.4448 41.7283 43.1556 43.9631 40.2719C46.1978 37.3882 47.6882 33.9986 48.3027 30.4024C48.9172 26.8062 48.6368 23.114 47.4863 19.6519C46.3358 16.1897 44.3505 13.0641 41.7059 10.5509C39.0613 8.03772 35.8385 6.21433 32.3223 5.24171V5.25282Z" fill="url(#paint1_linear_131_287)"/>
<path d="M23.7945 9.5971C26.1371 9.5971 28.0362 7.69804 28.0362 5.35544C28.0362 3.01283 26.1371 1.11377 23.7945 1.11377C21.4519 1.11377 19.5529 3.01283 19.5529 5.35544C19.5529 7.69804 21.4519 9.5971 23.7945 9.5971Z" fill="#50E6FF"/>
<defs>
<linearGradient id="paint0_linear_131_287" x1="26.0276" y1="11.9771" x2="26.0276" y2="41.1929" gradientUnits="userSpaceOnUse">
<stop offset="0.225" stop-color="#5EA0EF"/>
<stop offset="1" stop-color="#1E73BE"/>
</linearGradient>
<linearGradient id="paint1_linear_131_287" x1="26.4021" y1="48.8715" x2="26.4021" y2="4.70542" gradientUnits="userSpaceOnUse">
<stop stop-color="#1E73BE"/>
<stop offset="1" stop-color="#5EA0EF"/>
</linearGradient>
</defs>
</svg>

<svg xmlns="http://www.w3.org/2000/svg" width="50" height="50" fill="none" viewBox="0 0 50 50"><path fill="url(#a)" d="M32.247 27.278a12.7 12.7 0 0 0-4.747-2.806V19.25c1.52.213 2.981.73 4.297 1.52a.37.37 0 0 0 .372 0 .36.36 0 0 0 .19-.32v-4.203a.37.37 0 0 0-.19-.322 11.3 11.3 0 0 0-4.669-1.083v-2.484a.365.365 0 0 0-.37-.37h-2.263a.367.367 0 0 0-.37.37v2.559a7.67 7.67 0 0 0-4.389 2.052 6 6 0 0 0-1.858 4.445 5.96 5.96 0 0 0 1.52 4.244 12.85 12.85 0 0 0 4.722 2.795v5c-.92-.123-1.822-.35-2.69-.678a8.7 8.7 0 0 1-2.552-1.278.38.38 0 0 0-.386-.03.38.38 0 0 0-.2.33v4.314a.37.37 0 0 0 .197.328 13 13 0 0 0 5.63 1.47v2.924a.367.367 0 0 0 .37.367h2.253a.37.37 0 0 0 .386-.367v-3.055a8 8 0 0 0 4.583-1.99 5.9 5.9 0 0 0 1.72-4.41 5.75 5.75 0 0 0-1.556-4.1m-3.294 4.272v.028a1.683 1.683 0 0 1-1.464 1.772v-3.67c.961.531 1.453 1.153 1.464 1.87m-5.861-10.397a1.717 1.717 0 0 1 1.405-1.795v3.85a2.42 2.42 0 0 1-1.405-2.055"/><path fill="#50e6ff" d="M5.63 27.842a4.242 4.242 0 1 0 0-8.484 4.242 4.242 0 0 0 0 8.484m5.765-12.678a4.242 4.242 0 1 0 0-8.483 4.242 4.242 0 0 0 0 8.483"/><path fill="url(#b)" d="M32.322 5.253a22 22 0 0 0-2.63-.556 4.2 4.2 0 0 1-.7 3.184A18.958 18.958 0 1 1 10.23 36.578l1.666-.625a.367.367 0 0 0 .106-.628l-5.97-4.922a.37.37 0 0 0-.6.225l-1.244 7.63a.37.37 0 0 0 .494.406l2.453-.922a22.222 22.222 0 1 0 25.186-32.5z"/><path fill="#50e6ff" d="M23.795 9.597a4.242 4.242 0 1 0 0-8.483 4.242 4.242 0 0 0 0 8.483"/><defs><linearGradient id="a" x1="26.028" x2="26.028" y1="11.977" y2="41.193" gradientUnits="userSpaceOnUse"><stop offset=".225" stop-color="#5ea0ef"/><stop offset="1" stop-color="#1e73be"/></linearGradient><linearGradient id="b" x1="26.402" x2="26.402" y1="48.871" y2="4.705" gradientUnits="userSpaceOnUse"><stop stop-color="#1e73be"/><stop offset="1" stop-color="#5ea0ef"/></linearGradient></defs></svg>
